X:6
T:Hark the Herald Angels Sing
H: 
C:Felix Mendelssohn
O:Kevin Fraser
Z:Kevin Fraser
Q:1/4=90
K:HP
M:4/4
L:1/4
R:March
V:gstem=up stem=down
%%MIDI gracedivider 4
%%MIDI gchord
%%MIDI beatstring
w:
T: Hark the Herald Angels Sing
 || A d d2>c | d f f e | a a a2>g | f e f2 |  
    A d d2>c | d f f e | a e e2>d | c B A2 |
    a a a d  | g f f e | a a a d  | g f f e |
    G G G A  | g f g2  | e f/g/a2>d | d e d2||

